X:64
T:Little Davy Knick Knack
R:Reel
M:2/4
L:1/8
K:G
D2|GFGA B2B2|GFGA B2B2|dcBc A2A2|dcBc A2A2|
|GFGA B2B2|GFGA B2B2|dcBc AcBA|1 G2B2 G2 D2:|2 G2B2G2 Bc|
|:d3c B2d2|g2g2 d4|dcBc A2A2|dcBc A2A2|
|d3c B2d2|g2g2 d4|dcBc AcBA|1 G2B2 G2 Bc:|2 G2B2G2D2|
